src/icons/youtube.svg

<svg width="28" height="28" viewBox="0 0 28 28" fill="none" xmlns="http://www.w3.org/2000/svg">
<rect width="28" height="28" rx="4" fill="white"/>
<path d="M12.4446 16.3334L16.4813 14.0001L12.4446 11.6668V16.3334ZM21.4357 10.2434C21.5369 10.609 21.6069 11.099 21.6535 11.7212C21.708 12.3434 21.7313 12.8801 21.7313 13.3468L21.778 14.0001C21.778 15.7034 21.6535 16.9557 21.4357 17.7568C21.2413 18.4568 20.7902 18.9079 20.0902 19.1023C19.7246 19.2034 19.0557 19.2734 18.0291 19.3201C17.018 19.3746 16.0924 19.3979 15.2369 19.3979L14.0002 19.4446C10.7413 19.4446 8.7113 19.3201 7.91019 19.1023C7.21019 18.9079 6.75908 18.4568 6.56463 17.7568C6.46352 17.3912 6.39352 16.9012 6.34686 16.279C6.29241 15.6568 6.26908 15.1201 6.26908 14.6534L6.22241 14.0001C6.22241 12.2968 6.34686 11.0446 6.56463 10.2434C6.75908 9.54344 7.21019 9.09233 7.91019 8.89789C8.27575 8.79678 8.94463 8.72678 9.9713 8.68011C10.9824 8.62566 11.908 8.60233 12.7635 8.60233L14.0002 8.55566C17.2591 8.55566 19.2891 8.68011 20.0902 8.89789C20.7902 9.09233 21.2413 9.54344 21.4357 10.2434V10.2434Z" fill="#491060" fill-opacity="0.75"/>
</svg>

<svg xmlns="http://www.w3.org/2000/svg" width="28" height="28" fill="none" xmlns:v="https://vecta.io/nano"><rect width="28" height="28" rx="4" fill="#fff"/><path d="M12.445 16.333L16.481 14l-4.037-2.333v4.667zm8.991-6.09c.101.366.171.856.218 1.478l.078 1.626.047.653c0 1.703-.124 2.956-.342 3.757a1.82 1.82 0 0 1-1.346 1.346c-.366.101-1.034.171-2.061.218l-2.792.078-1.237.047c-3.259 0-5.289-.125-6.09-.342a1.82 1.82 0 0 1-1.346-1.346c-.101-.366-.171-.856-.218-1.478l-.078-1.626L6.222 14c0-1.703.124-2.955.342-3.757A1.82 1.82 0 0 1 7.91 8.898c.366-.101 1.034-.171 2.061-.218l2.792-.078L14 8.556c3.259 0 5.289.124 6.09.342a1.82 1.82 0 0 1 1.346 1.346h0z" fill="#491060" fill-opacity=".75"/></svg>
